X:1
T:[ID 6-9]
T:[ID 6-9]
T:Bezeichnung standardisiert: Menuett Menuet
T:Urheber unbekannt Datum in der hier transkribierten schriftlichen Quelle: 1776 - 1791
C:Urheber unbekannt
C:Datum in der hier transkribierten schriftlichen Quelle: 1776 - 1791
L:1/8
M:3/4
K:D
V:1 treble 
V:1
 af d2 d2 | e2 dc d2 | e3 gfa | g2 gefd | e3 gfa | g2 gefd | efgefd | e6 :: d3 efd | e2 g2 f2 | %10
 f3 gaf | g2 b2 ag | f3 gaf | g2 b2 ag |{g} f2 edec | d6 :| %16

